assets/facebook.svg

<svg width="80" height="80" viewBox="0 0 80 80" fill="none" xmlns="http://www.w3.org/2000/svg">
<rect width="80" height="80" rx="40" fill="#337FFF"/>
<path d="M49.7875 42.6043L50.9274 35.3621H43.906V30.6547C43.906 28.6744 44.8862 26.7394 48.0208 26.7394H51.2579V20.5723C49.3728 20.2717 47.4679 20.109 45.5587 20.0857C39.7797 20.0857 36.0069 23.5597 36.0069 29.84V35.3621H29.601V42.6043H36.0069V60.1213H43.906V42.6043H49.7875Z" fill="white"/>
</svg>

<svg xmlns="http://www.w3.org/2000/svg" width="80" height="80" fill="none"><rect width="80" height="80" fill="#337FFF" rx="40"/><path fill="#fff" d="m49.788 42.604 1.14-7.242h-7.022v-4.707c0-1.98.98-3.916 4.115-3.916h3.237v-6.167c-1.885-.3-3.79-.463-5.7-.486-5.778 0-9.551 3.474-9.551 9.754v5.522H29.6v7.242h6.406v17.517h7.899V42.604h5.882Z"/></svg>
